src/pages/screens/Discuss/images/Phone.svg

<svg width="36" height="36" viewBox="0 0 36 36" fill="none" xmlns="http://www.w3.org/2000/svg">
<path opacity="0.7" d="M3.67962 5.87593L6.84845 2.70711C7.23897 2.31658 7.87214 2.31658 8.26266 2.70711L14.404 8.84845C14.7945 9.23897 14.7945 9.87214 14.404 10.2627L11.843 12.8237C11.5386 13.128 11.4655 13.5976 11.658 13.9826C13.8835 18.4337 17.5663 22.1165 22.0174 24.342C22.4024 24.5345 22.872 24.4614 23.1763 24.157L25.7373 21.596C26.1279 21.2055 26.761 21.2055 27.1516 21.596L33.2929 27.7373C33.6834 28.1279 33.6834 28.761 33.2929 29.1516L30.1241 32.3204C28.0127 34.4317 24.6702 34.6693 22.2814 32.8777L13.9619 26.6381C12.2184 25.3304 10.6696 23.7816 9.36191 22.0381L3.12226 13.7186C1.33072 11.3299 1.56827 7.98729 3.67962 5.87593Z" stroke="white" stroke-width="3"/>
</svg>

<svg width="36" height="36" fill="none" xmlns="http://www.w3.org/2000/svg"><path opacity=".7" d="m3.68 5.876 3.168-3.169a1 1 0 0 1 1.415 0l6.141 6.141a1 1 0 0 1 0 1.415l-2.561 2.56a1.006 1.006 0 0 0-.185 1.16 23.321 23.321 0 0 0 10.36 10.359c.384.193.854.12 1.158-.185l2.561-2.561a1 1 0 0 1 1.415 0l6.14 6.141a1 1 0 0 1 0 1.415l-3.168 3.168a6 6 0 0 1-7.843.558l-8.32-6.24a23.004 23.004 0 0 1-4.6-4.6l-6.239-8.32a6 6 0 0 1 .558-7.842z" stroke="#fff" stroke-width="3"/></svg>
